X:51
%%score 1 2
T:The Frog Galliard or Now, O Now!
M:6/8
L:1/8
K:G
V:1 clef-treble
V:2 clef-bass octave=-1
V:1
[GB]2[FA] [EG]2[DF]|[CE]2[EG] [DA]3|[DB]2[Ad] [Gc]2[GB]|[GA]2[GB] [FA]3|
w:Now, O now I needs must part, Part-ing though I ab-sent mourn,
w:While I live I needs must love, Love lives not when life is gone;
V:2
G,6-|G,3 F,E,D,|G2F E2D|C2^C D3|
V:1
[GB]2[FA] [EG]2[DF]|[CE]2[EG] [DA]3|B2d (cB)A & DGF (ED)C|[B,G]2[A,F] [B,G]3 :||
w:Ab-sence can no joy im-part, Joy once fled* can ne'er re-turn.
w:Now, at last, des-pair doth prove, Love di vi-*ded lov-eth none.
V:2
G,6-|G,3 F,E,D,|G,3 C3|D3 G,3 :||
V:1
c2c c2e & G6|d2e (d2B) & G6|(dc)B (Ac)B & G3 G3|[FA]2[GB] A3 & x3 FED|
w:Sad despair* doth drive me hence,* That* des-pair* un-kind-ness sends;
V:2
E3-E2C|B,2C B,2G,|E2D C2^C|D6|
V:1
[^DB]2A G2[B,DF]|[B,E]2G [=DA]3|B2d (cB)A & DGF (ED)C|[B,G]2[A,F] [B,G]3||
w:If that part-ing be of-fence, It is she,* who then of-fends.
V:2
B,3-B,2A,|G,2E, F,E,D,|G,3 C3|D3 G,3||

